proprietary/assets/icons/gebruiksvoorwerpen/ledikant.svg

<svg enable-background="new 0 0 64 64" viewBox="0 0 64 64" xmlns="http://www.w3.org/2000/svg"><path d="m0 0h64v64h-64z" fill="none"/><path d="m55 10c-1.657 0-3 1.343-3 3 0 .885.39 1.672 1 2.221v4.779h-41v-4.779c.61-.549 1-1.336 1-2.221 0-1.657-1.343-3-3-3s-3 1.343-3 3c0 .885.39 1.672 1 2.221v36.779c0 1.105.896 1.5 2 1.5s2-.395 2-1.5v-3h41v3c0 1.105.896 1.5 2 1.5s2-.395 2-1.5v-36.779c.61-.549 1-1.336 1-2.221 0-1.657-1.343-3-3-3zm-38 30h-5v-16h5zm9 0h-5v-16h5zm9 0h-5v-16h5zm9 0h-5v-16h5zm9 6.32s-.276.085-.363-.245c-.038-.144-.541-2.949-1.098-6.074h-3.539v-16.001h5z"/></svg>

<?xml version="1.0" encoding="utf-8"?>
<!-- Generator: Adobe Illustrator 25.2.0, SVG Export Plug-In . SVG Version: 6.00 Build 0)  -->
<svg version="1.1" xmlns="http://www.w3.org/2000/svg" xmlns:xlink="http://www.w3.org/1999/xlink" x="0px" y="0px"
	 viewBox="0 0 64 64" style="enable-background:new 0 0 64 64;" xml:space="preserve">
<style type="text/css">
	.st0{fill:none;}
</style>
<g id="Box">
	<rect class="st0" width="64" height="64"/>
</g>
<g id="Icon">
	<path d="M55,10c-1.657,0-3,1.343-3,3c0,0.885,0.39,1.672,1,2.221V20H12v-4.779c0.61-0.549,1-1.336,1-2.221c0-1.657-1.343-3-3-3
		s-3,1.343-3,3c0,0.885,0.39,1.672,1,2.221V52c0,1.105,0.896,1.5,2,1.5s2-0.395,2-1.5v-3h41v3c0,1.105,0.896,1.5,2,1.5
		s2-0.395,2-1.5V15.221c0.61-0.549,1-1.336,1-2.221C58,11.343,56.657,10,55,10z M17,40h-5V24h5V40z M26,40h-5V24h5V40z M35,40h-5V24
		h5V40z M44,40h-5V24h5V40z M53,46.32c0,0-0.276,0.085-0.363-0.245c-0.038-0.144-0.541-2.949-1.098-6.074H48V24h5V46.32z"/>
</g>
</svg>
